src/images/section-about-person-icon-3.svg

<svg fill="none" height="70" viewBox="0 0 95 70" width="95" xmlns="http://www.w3.org/2000/svg"><circle cx="60" cy="35" fill="#2f80ed" opacity=".1" r="35"/><g fill="#868686"><path d="m10.0667 28h13.8666c.5899 0 1.0667-.448 1.0667-1s-.4768-1-1.0667-1h-13.8666c-.5899 0-1.0667.448-1.0667 1s.4768 1 1.0667 1z"/><path d="m36 31h-26c-.553 0-1 .448-1 1s.447 1 1 1h26c.553 0 1-.448 1-1s-.447-1-1-1z"/><path d="m36 38h-26c-.553 0-1 .448-1 1s.447 1 1 1h26c.553 0 1-.448 1-1s-.447-1-1-1z"/><path d="m54.072 5.07118-34.142-.07118c-3.27 0-5.93 2.70487-5.93 6.03v5.2105l-8.07.0173c-3.27 0-5.93 2.7048-5.93 6.03v21.4976c0 3.3252 2.66 6.029 5.93 6.029h6.07v10.1687c0 .42.254.7973.64.9488.117.0457.239.0681.36.0681.276 0 .547-.1169.74-.3325l9.704-10.8551 16.626-.0691c3.27 0 5.93-2.7049 5.93-6.0291v-.1149l5.26 5.8836c.193.2156.464.3326.74.3326.121 0 .243-.0224.36-.0682.386-.1515.64-.5287.64-.9487v-10.1687h1.07c3.27 0 5.93-2.7049 5.93-6.029v-21.4997c0-3.32413-2.659-6.029-5.928-6.03002zm-10.072 38.64202c0 2.2036-1.763 3.9953-3.934 3.9953l-17.07.0712c-.28.001-.548.122-.736.3325l-8.26 9.2403v-8.5559c0-.5614-.447-1.0169-1-1.0169h-7.07c-2.167 0-3.93-1.7928-3.93-3.9953v-21.4976c0-2.2036 1.763-3.9963 3.932-3.9963l9.068-.0193h.002l25.068-.0529c2.167 0 3.93 1.7927 3.93 3.9963v18.7521zm14-11.1144c0 2.2036-1.763 3.9953-3.93 3.9953h-2.07c-.553 0-1 .4556-1 1.0169v8.5559l-5-5.5927v-18.3586c0-3.3252-2.66-6.03-5.932-6.03l-24.068.0498v-5.2064c0-2.20354 1.763-3.99628 3.928-3.99628l34.141.07118h.002c2.167 0 3.93 1.79274 3.93 3.9963v21.4986z"/></g></svg>

<svg width="95" height="70" viewBox="0 0 95 70" fill="none" xmlns="http://www.w3.org/2000/svg">
<circle opacity="0.1" cx="60" cy="35" r="35" fill="#2F80ED"/>
<path d="M10.0667 28H23.9333C24.5232 28 25 27.552 25 27C25 26.448 24.5232 26 23.9333 26H10.0667C9.4768 26 9 26.448 9 27C9 27.552 9.4768 28 10.0667 28Z" fill="#868686"/>
<path d="M36 31H10C9.447 31 9 31.448 9 32C9 32.552 9.447 33 10 33H36C36.553 33 37 32.552 37 32C37 31.448 36.553 31 36 31Z" fill="#868686"/>
<path d="M36 38H10C9.447 38 9 38.448 9 39C9 39.552 9.447 40 10 40H36C36.553 40 37 39.552 37 39C37 38.448 36.553 38 36 38Z" fill="#868686"/>
<path d="M54.072 5.07118L19.93 5C16.66 5 14 7.70487 14 11.03V16.2405L5.93 16.2578C2.66 16.2578 0 18.9626 0 22.2878V43.7854C0 47.1106 2.66 49.8144 5.93 49.8144H12V59.9831C12 60.4031 12.254 60.7804 12.64 60.9319C12.757 60.9776 12.879 61 13 61C13.276 61 13.547 60.8831 13.74 60.6675L23.444 49.8124L40.07 49.7433C43.34 49.7433 46 47.0384 46 43.7142V43.5993L51.26 49.4829C51.453 49.6985 51.724 49.8155 52 49.8155C52.121 49.8155 52.243 49.7931 52.36 49.7473C52.746 49.5958 53 49.2186 53 48.7986V38.6299H54.07C57.34 38.6299 60 35.925 60 32.6009V11.1012C60 7.77707 57.341 5.0722 54.072 5.07118ZM44 43.7132C44 45.9168 42.237 47.7085 40.066 47.7085L22.996 47.7797C22.716 47.7807 22.448 47.9017 22.26 48.1122L14 57.3525V48.7966C14 48.2352 13.553 47.7797 13 47.7797H5.93C3.763 47.7797 2 45.9869 2 43.7844V22.2868C2 20.0832 3.763 18.2905 5.932 18.2905L15 18.2712C15.001 18.2712 15.001 18.2712 15.002 18.2712L40.07 18.2183C42.237 18.2183 44 20.011 44 22.2146V40.9667V43.7132ZM58 32.5988C58 34.8024 56.237 36.5941 54.07 36.5941H52C51.447 36.5941 51 37.0497 51 37.611V46.1669L46 40.5742V22.2156C46 18.8904 43.34 16.1856 40.068 16.1856L16 16.2354V11.029C16 8.82546 17.763 7.03272 19.928 7.03272L54.069 7.1039C54.07 7.1039 54.07 7.1039 54.071 7.1039C56.238 7.1039 58.001 8.89664 58.001 11.1002V32.5988H58Z" fill="#868686"/>
</svg>
